; generated by PrusaSlicer 2.5.0+linux-x64-GTK2 on 2022-12-03 at 03:50:44 UTC

; 

; external perimeters extrusion width = 0.45mm
; perimeters extrusion width = 0.45mm
; infill extrusion width = 0.45mm
; solid infill extrusion width = 0.45mm
; top infill extrusion width = 0.40mm
; first layer extrusion width = 0.42mm

M73 P0 R42
M73 Q0 S42
M201 X1000 Y1000 Z200 E5000 ; sets maximum accelerations, mm/sec^2
M203 X200 Y200 Z12 E120 ; sets maximum feedrates, mm / sec
M204 P1250 R1250 T1250 ; sets acceleration (P, T) and retract acceleration (R), mm/sec^2
M205 X8.00 Y8.00 Z0.40 E4.50 ; sets the jerk limits, mm/sec
M205 S0 T0 ; sets the minimum extruding and travel feed rate, mm/sec
M107
;TYPE:Custom
M862.3 P "MK3S" ; printer model check
M862.1 P0.4 ; nozzle diameter check
M115 U3.11.0 ; tell printer latest fw version
G90 ; use absolute coordinates
M83 ; extruder relative mode
M104 S215 ; set extruder temp
M140 S60 ; set bed temp
M190 S60 ; wait for bed temp
M109 S215 ; wait for extruder temp
G28 W ; home all without mesh bed level
G80 ; mesh bed leveling

G1 Z0.2 F720
G1 Y-3 F1000 ; go outside print area
G92 E0
G1 X60 E9 F1000 ; intro line
G1 X100 E12.5 F1000 ; intro line

G92 E0
M221 S95

; Don't change E values below. Excessive value can damage the printer.
M907 E430 ; set extruder motor current
G21 ; set units to millimeters
G90 ; use absolute coordinates
M83 ; use relative distances for extrusion
M900 K0.05 ; Filament gcode LA 1.5
M900 K30 ; Filament gcode LA 1.0
M107
;LAYER_CHANGE
;Z:0.2
;HEIGHT:0.2
;BEFORE_LAYER_CHANGE
G92 E0.0
;0.2


G1 E-.8 F2100
G1 Z.4 F720
;AFTER_LAYER_CHANGE
;0.2
G1 X110.013 Y100.054 F10800
G1 Z.2 F720
G1 E.8 F2100
M204 S800
;TYPE:Skirt/Brim
;WIDTH:0.42
G1 F1200
G1 X110.547 Y99.536 E.02332
G1 X111.447 Y99.019 E.03255
G1 X112.418 Y98.781 E.03136
G1 X125.053 Y97.98 E.39694
G1 X126.397 Y98.07 E.04222
G1 X127.763 Y98.341 E.04368
G1 X129.107 Y98.798 E.0445
G1 X130.395 Y99.439 E.04512
G1 X131.536 Y100.21 E.04316
G1 X132.58 Y101.135 E.04376
G1 X133.524 Y102.229 E.0453
G1 X134.255 Y103.344 E.04179
G1 X134.549 Y104.054 E.02409
G1 X134.678 Y104.801 E.02378
G1 X134.641 Y105.538 E.02312
G1 X134.427 Y106.298 E.02475
G1 X133.93 Y107.19 E.03201
G1 X133.253 Y108.117 E.03602
G1 X132.432 Y109.012 E.03808
G1 X131.55 Y109.779 E.03663
G1 X130.041 Y110.759 E.05641
G1 X128.485 Y111.438 E.05324
G1 X126.776 Y111.873 E.05529
G1 X125.045 Y112.02 E.05447
G1 X112.223 Y111.193 E.40287
G1 X111.511 Y111.006 E.02307
G1 X110.863 Y110.686 E.02264
G1 X110.38 Y110.325 E.01892
G1 X109.888 Y109.787 E.02284
G1 X109.41 Y108.914 E.03122
G1 X109.186 Y107.957 E.03083
G1 X109.179 Y102.124 E.18288
G1 X109.304 Y101.408 E.02279
G1 X109.585 Y100.697 E.02396
G1 X109.98 Y100.104 E.02233
M204 S1000
G1 X110.29 Y100.315 F10800
M204 S800
G1 F1200
G1 X110.819 Y99.802 E.0231
G1 X111.583 Y99.371 E.02751
G1 X112.454 Y99.157 E.02812
G1 X125.051 Y98.357 E.39575
G1 X126.346 Y98.444 E.04072
G1 X127.663 Y98.705 E.0421
G1 X128.924 Y99.13 E.04172
G1 X130.149 Y99.732 E.04278
G1 X131.285 Y100.492 E.04285
G1 X132.314 Y101.402 E.04306
G1 X133.224 Y102.457 E.04369
G1 X133.925 Y103.527 E.04012
G1 X134.187 Y104.161 E.0215
G1 X134.304 Y104.869 E.02249
G1 X134.256 Y105.551 E.02145
G1 X134.019 Y106.287 E.02424
G1 X133.492 Y107.168 E.03218
G1 X132.796 Y108.075 E.03587
G1 X132.023 Y108.881 E.03501
G1 X131.179 Y109.588 E.03453
G1 X129.828 Y110.445 E.05015
G1 X128.267 Y111.114 E.05324
G1 X126.649 Y111.512 E.05225
G1 X124.966 Y111.643 E.05293
G1 X112.285 Y110.821 E.39843
G1 X111.646 Y110.654 E.02071
G1 X111.066 Y110.368 E.02028
G1 X110.629 Y110.041 E.01711
G1 X110.193 Y109.565 E.02025
G1 X109.764 Y108.782 E.02798
G1 X109.556 Y107.859 E.02969
G1 X109.555 Y102.156 E.1788
G1 X109.68 Y101.466 E.02197
G1 X109.946 Y100.821 E.0219
G1 X110.256 Y100.365 E.01729
M204 S1000
; printing object model.stl id:0 copy 0
;WIPE_START
G1 F8640
G1 X110.819 Y99.802 E-.18372
G1 X111.583 Y99.371 E-.20261
G1 X112.454 Y99.157 E-.20711
G1 X113.174 Y99.111 E-.16656
;WIPE_END
G1 E-.04 F2100
G1 Z.6 F720
G1 X115.311 Y106.894 F10800
G1 Z.2 F720
G1 E.8 F2100
M204 S800
;TYPE:Perimeter
;WIDTH:0.510649
G1 F1200
G1 X115.447 Y107.088 E.00925
G1 X115.559 Y107.14 E.00479
;WIDTH:0.469635
G1 X115.671 Y107.191 E.00437
;WIDTH:0.428621
G1 X115.783 Y107.243 E.00395
;WIDTH:0.42969
G1 X115.848 Y107.29 E.00258
;WIDTH:0.471772
G1 X115.912 Y107.337 E.00286
;WIDTH:0.513854
G1 X115.977 Y107.385 E.00314
;WIDTH:0.555936
G1 X116.042 Y107.432 E.00342
;WIDTH:0.598018
G1 X116.107 Y107.479 E.0037
G1 X116.028 Y107.498 E.00374
;WIDTH:0.557183
G1 X115.949 Y107.516 E.00347
;WIDTH:0.516347
G1 X115.87 Y107.535 E.00319
;WIDTH:0.475511
G1 X115.791 Y107.554 E.00292
;WIDTH:0.434675
G1 X115.712 Y107.572 E.00264
;WIDTH:0.432776
G1 X115.564 Y107.544 E.00489
;WIDTH:0.471713
G1 X115.416 Y107.515 E.00538
;WIDTH:0.510649
G1 X115.268 Y107.487 E.00587
G1 X114.466 Y107.438 E.03123
G1 X114.541 Y107.418 E.00303
G1 X115.032 Y107.16 E.02157
G1 X115.268 Y106.935 E.01265
M204 S1000
;WIPE_START
G1 F8640
G1 X115.447 Y107.088 E-.05456
G1 X115.559 Y107.14 E-.02842
G1 X115.671 Y107.191 E-.02842
G1 X115.783 Y107.243 E-.02842
G1 X115.848 Y107.29 E-.01852
G1 X115.912 Y107.337 E-.01852
G1 X115.977 Y107.385 E-.01852
G1 X116.042 Y107.432 E-.01852
G1 X116.107 Y107.479 E-.01852
G1 X116.028 Y107.498 E-.01873
G1 X115.949 Y107.516 E-.01873
G1 X115.87 Y107.535 E-.01873
G1 X115.791 Y107.554 E-.01873
G1 X115.712 Y107.572 E-.01873
G1 X115.564 Y107.544 E-.03485
G1 X115.416 Y107.515 E-.03485
G1 X115.268 Y107.487 E-.03485
G1 X114.466 Y107.438 E-.18539
G1 X114.541 Y107.418 E-.01802
G1 X115.024 Y107.164 E-.12601
;WIPE_END
G1 E-.04 F2100
G1 Z.6 F720
G1 X116.468 Y107.509 F10800
G1 Z.2 F720
G1 E.8 F2100
M204 S800
;WIDTH:0.612098
G1 F1200
G1 X116.606 Y107.481 E.00665
;WIDTH:0.593091
G1 X117.106 Y107.247 E.02525
;WIDTH:0.558137
G1 X117.396 Y106.966 E.01732
G1 X117.578 Y107.143 E.0109
G1 X117.713 Y107.202 E.00631
;WIDTH:0.513427
G1 X117.848 Y107.262 E.00576
;WIDTH:0.468717
G1 X117.983 Y107.321 E.00522
;WIDTH:0.424007
G1 X118.262 Y107.379 E.00902
;WIDTH:0.394258
G1 X118.541 Y107.437 E.00832
;WIDTH:0.384068
G1 X119.206 Y107.451 E.01888
;WIDTH:0.420988
G1 X119.392 Y107.412 E.00597
;WIDTH:0.457908
G1 X119.578 Y107.373 E.00655
;WIDTH:0.494827
G1 X119.764 Y107.334 E.00714
;WIDTH:0.53494
G1 X120.019 Y107.218 E.01146
G1 X120.138 Y107.307 E.00608
G1 X120.404 Y107.364 E.01115
;WIDTH:0.498352
G1 X120.671 Y107.421 E.01033
;WIDTH:0.495943
G1 X121.683 Y107.431 E.03814
;WIDTH:0.503705
G1 X121.788 Y107.429 E.004
;WIDTH:0.537535
G1 X122.075 Y107.381 E.012
;WIDTH:0.571365
G1 X122.363 Y107.334 E.01282
G1 X122.53 Y107.423 E.00831
;WIDTH:0.536152
G1 X122.697 Y107.512 E.00776
;WIDTH:0.500938
G1 X122.974 Y107.574 E.01081
;WIDTH:0.461864
G1 X123.251 Y107.637 E.00989
;WIDTH:0.46329
G1 X123.765 Y107.613 E.018
;WIDTH:0.503112
G1 X123.953 Y107.556 E.00752
;WIDTH:0.542933
G1 X124.141 Y107.498 E.00817
G1 X124.662 Y107.556 E.0218
;WIDTH:0.558376
G1 X125.082 Y107.455 E.01849
G1 X125.129 Y107.743 E.01248
G1 X125.222 Y108.035 E.01315
G1 X124.675 Y108.047 E.02343
;WIDTH:0.542933
G1 X124.172 Y108.012 E.02095
G1 X123.985 Y108.018 E.00781
;WIDTH:0.508422
G1 X123.797 Y108.024 E.00727
;WIDTH:0.47391
G1 X123.609 Y108.03 E.00673
;WIDTH:0.439398
G1 X123.027 Y107.998 E.01924
;WIDTH:0.478041
G1 X122.78 Y107.96 E.00902
;WIDTH:0.524703
G1 X122.534 Y107.922 E.00999
;WIDTH:0.571365
G1 X122.287 Y107.883 E.01096
G1 X121.979 Y107.884 E.01354
;WIDTH:0.533654
G1 X121.671 Y107.884 E.01257
;WIDTH:0.495943
G1 X120.66 Y107.839 E.03814
;WIDTH:0.461763
G1 X120.581 Y107.835 E.00276
;WIDTH:0.494827
G1 X119.827 Y107.772 E.02841
G1 X119.576 Y107.777 E.00945
;WIDTH:0.455333
G1 X119.324 Y107.781 E.00862
;WIDTH:0.415838
G1 X119.073 Y107.785 E.0078
;WIDTH:0.376343
G1 X118.481 Y107.756 E.01642
;WIDTH:0.394005
G1 X118.194 Y107.723 E.00843
;WIDTH:0.424007
G1 X117.908 Y107.691 E.00915
;WIDTH:0.468717
G1 X117.676 Y107.654 E.0083
;WIDTH:0.513427
G1 X117.444 Y107.618 E.00917
;WIDTH:0.558137
G1 X117.213 Y107.581 E.01005
;WIDTH:0.585118
G1 X116.84 Y107.545 E.01686
;WIDTH:0.612098
G1 X116.528 Y107.515 E.01486
M204 S1000
;WIPE_START
G1 F8640
G1 X116.606 Y107.481 E-.01962
G1 X117.106 Y107.247 E-.12743
G1 X117.396 Y106.966 E-.09334
G1 X117.578 Y107.143 E-.05873
G1 X117.713 Y107.202 E-.03402
G1 X117.848 Y107.262 E-.03402
G1 X117.983 Y107.321 E-.03402
G1 X118.262 Y107.379 E-.06575
G1 X118.541 Y107.437 E-.06575
G1 X119.206 Y107.451 E-.15368
G1 X119.392 Y107.412 E-.04385
G1 X119.518 Y107.385 E-.02978
;WIPE_END
G1 E-.04 F2100
G1 Z.6 F720
G1 X114.478 Y104.775 F10800
G1 Z.2 F720
G1 E.8 F2100
M204 S800
;WIDTH:0.46435
G1 F1200
G1 X114.575 Y104.78 E.00341
;WIDTH:0.429166
G1 X114.872 Y104.647 E.01045
;WIDTH:0.419999
G1 X115.046 Y104.504 E.00706
G1 X115.197 Y104.566 E.00513
G1 X115.559 Y104.603 E.01139
G1 X115.584 Y105.956 E.04243
G1 X115.576 Y106.471 E.01613
G1 X115.747 Y106.79 E.01137
G1 X116.132 Y106.998 E.01371
G1 X116.426 Y107.037 E.00931
G1 X116.825 Y106.9 E.01321
G1 X117.005 Y106.747 E.00744
G1 X117.133 Y106.519 E.00817
G1 X117.193 Y106.185 E.01064
;WIDTH:0.431614
G1 X117.214 Y106.06 E.00411
;WIDTH:0.474716
G1 X117.235 Y105.935 E.00456
;WIDTH:0.517818
G1 X117.256 Y105.809 E.00502
;WIDTH:0.549981
G1 X117.271 Y105.504 E.01289
;WIDTH:0.582144
G1 X117.277 Y104.662 E.03773
;WIDTH:0.570185
G1 X117.746 Y104.562 E.02101
G1 X117.823 Y104.585 E.00355
;WIDTH:0.577254
G1 X117.813 Y105.102 E.02297
;WIDTH:0.582144
G1 X117.888 Y105.307 E.00983
G1 X117.803 Y105.349 E.00426
G1 X117.543 Y105.665 E.01835
G1 X117.524 Y105.76 E.00433
;WIDTH:0.549981
G1 X117.505 Y105.855 E.00407
;WIDTH:0.517818
G1 X117.56 Y106.176 E.01285
;WIDTH:0.468909
G1 X117.615 Y106.496 E.01152
;WIDTH:0.419999
G1 X117.764 Y106.71 E.00817
G1 X118.11 Y106.964 E.01345
G1 X118.547 Y107.088 E.01424
G1 X119.165 Y107.094 E.01941
G1 X119.692 Y106.914 E.01744
G1 X120.067 Y106.582 E.0157
G1 X120.14 Y106.713 E.0047
G1 X120.366 Y106.938 E.00999
G1 X120.668 Y107.023 E.00983
G1 X121.74 Y107.012 E.03362
G1 X122.265 Y106.892 E.01688
G1 X122.489 Y106.786 E.00776
G1 X122.704 Y107.025 E.01006
G1 X123.127 Y107.234 E.01481
G1 X123.459 Y107.266 E.01047
G1 X123.852 Y107.162 E.01273
G1 X124.084 Y107.007 E.00874
G1 X124.515 Y107.127 E.01405
G1 X124.784 Y107.077 E.00856
G1 X125.048 Y106.907 E.00986
G1 X125.391 Y107.105 E.01241
G1 X125.659 Y107.128 E.00845
G1 X125.592 Y107.273 E.005
G1 X125.558 Y107.568 E.00931
G1 X125.652 Y107.911 E.01113
G1 X125.87 Y108.203 E.01144
;WIDTH:0.423153
G1 X126.217 Y108.375 E.01223
G1 X125.786 Y108.455 E.01385
;WIDTH:0.419999
G1 X124.912 Y108.497 E.02746
G1 X113.382 Y107.795 E.36216
G1 X112.857 Y107.755 E.01653
G1 X112.721 Y107.677 E.00493
G1 X112.627 Y107.417 E.00865
G1 X112.628 Y106.698 E.02252
G1 X112.833 Y106.846 E.00793
G1 X113.438 Y107.082 E.02037
G1 X113.885 Y107.111 E.01403
G1 X114.378 Y107.028 E.01569
G1 X114.756 Y106.84 E.01324
G1 X115.075 Y106.527 E.014
G1 X115.206 Y106.227 E.01025
;WIDTH:0.39541
G1 X115.249 Y106.022 E.00614
;WIDTH:0.415255
G1 X115.189 Y105.699 E.01019
;WIDTH:0.419999
G1 X115.084 Y105.519 E.00652
G1 X114.911 Y105.339 E.00785
;WIDTH:0.433241
G1 X114.467 Y105.181 E.01528
;WIDTH:0.467066
G1 X114.32 Y105.189 E.00521
;WIDTH:0.500891
G1 X114.172 Y105.197 E.00562
;WIDTH:0.534716
G1 X114.025 Y105.206 E.00604
G1 X113.783 Y105.38 E.01221
G1 X113.727 Y105.329 E.00308
G1 X113.687 Y104.976 E.01451
G1 X113.746 Y104.618 E.01485
G1 X114.034 Y104.754 E.013
G1 X114.214 Y104.762 E.00739
;WIDTH:0.499533
G1 X114.395 Y104.771 E.00686
;WIDTH:0.46435
G1 X114.418 Y104.772 E.00081
M204 S1000
G1 X115.17 Y104.939 F10800
M204 S800
;WIDTH:0.503138
G1 F1200
G1 X115.112 Y104.939 E.0022
G1 X115.084 Y104.989 E.0022
G1 X115.112 Y105.039 E.0022
G1 X115.17 Y105.039 E.0022
G1 X115.199 Y104.989 E.0022
M204 S1000
;WIPE_START
G1 F8640
G1 X115.17 Y105.039 E-.01328
G1 X115.112 Y105.039 E-.01328
G1 X115.084 Y104.989 E-.01328
G1 X115.112 Y104.939 E-.01328
G1 X115.17 Y104.939 E-.01328
;WIPE_END
G1 E-.73358 F2100
G1 Z.6 F720
G1 X116.468 Y107.509 F10800
G1 Z.2 F720
G1 E.8 F2100
M204 S800
;WIDTH:0.612098
G1 F1200
G1 X116.107 Y107.479 E.01715
M204 S1000
;WIPE_START
G1 F8640
G1 X116.468 Y107.509 E-.08368
;WIPE_END
G1 E-.71632 F2100
G1 Z.6 F720
G1 X113.029 Y107.371 F10800
G1 Z.2 F720
G1 E.8 F2100
M204 S800
;WIDTH:0.469052
G1 F1200
G1 X113.378 Y107.417 E.01247
;WIDTH:0.41969
G1 X113.727 Y107.463 E.01103
;WIDTH:0.383674
G1 X113.919 Y107.468 E.00544
M204 S1000
;WIPE_START
G1 F8640
G1 X113.727 Y107.463 E-.04433
G1 X113.378 Y107.417 E-.08128
G1 X113.029 Y107.371 E-.08128
;WIPE_END
G1 E-.59311 F2100
G1 Z.6 F720
G1 X112.3 Y104.591 F10800
G1 Z.2 F720
G1 E.8 F2100
M204 S800
;TYPE:External perimeter
;WIDTH:0.51628
G1 F1200
G1 X112.296 Y105.333 E.02923
;WIDTH:0.514036
G1 X112.298 Y105.373 E.00156
M204 S1000
;WIPE_START
G1 F8640
G1 X112.296 Y105.333 E-.00922
G1 X112.3 Y104.591 E-.17146
;WIPE_END
G1 E-.61931 F2100
G1 Z.6 F720
G1 X118.781 Y104.238 F10800
G1 Z.2 F720
G1 E.8 F2100
M204 S800
;WIDTH:0.629122
G1 F1200
G1 X118.604 Y104.307 E.00923
;WIDTH:0.596259
G1 X118.428 Y104.375 E.00871
M204 S1000
;WIPE_START
G1 F8640
G1 X118.604 Y104.307 E-.04373
G1 X118.781 Y104.238 E-.04373
;WIPE_END
G1 E-.71254 F2100
G1 Z.6 F720
G1 X122.77 Y105.91 F10800
G1 Z.2 F720
G1 E.8 F2100
M204 S800
;WIDTH:0.38292
G1 F1200
G1 X122.835 Y105.801 E.0036
M204 S1000
;WIPE_START
G1 F8640
G1 X122.77 Y105.91 E-.02937
;WIPE_END
G1 E-.77063 F2100
G1 Z.6 F720
G1 X124.106 Y106.186 F10800
G1 Z.2 F720
G1 E.8 F2100
M204 S800
;WIDTH:0.447306
G1 F1200
G1 X124.081 Y106.328 E.00486
M204 S1000
;WIPE_START
G1 F8640
G1 X124.106 Y106.186 E-.03339
;WIPE_END
G1 E-.76661 F2100
G1 Z.6 F720
G1 X127.234 Y108.122 F10800
G1 Z.2 F720
G1 E.8 F2100
M204 S800
;TYPE:Perimeter
;WIDTH:0.419999
G1 F1200
G1 X127.335 Y108.04 E.00408
G1 X127.576 Y107.732 E.01226
G1 X127.821 Y107.173 E.01914
G1 X128.048 Y106.586 E.01973
G1 X128.169 Y106.785 E.00731
G1 X128.382 Y107.006 E.00962
G1 X128.684 Y107.119 E.0101
G1 X129.14 Y107.135 E.0143
G1 X128.888 Y107.321 E.00982
G1 X128.342 Y107.652 E.02002
G1 X127.743 Y107.93 E.02071
G1 X127.29 Y108.1 E.01516
M204 S1000
;WIPE_START
G1 F8640
G1 X127.335 Y108.04 E-.01741
G1 X127.576 Y107.732 E-.09029
G1 X127.821 Y107.173 E-.14098
G1 X128.048 Y106.586 E-.14532
G1 X128.169 Y106.785 E-.05381
G1 X128.382 Y107.006 E-.07085
G1 X128.684 Y107.119 E-.07441
G1 X129.14 Y107.135 E-.10535
G1 X128.925 Y107.294 E-.0616
;WIPE_END
G1 E-.04 F2100
G1 Z.6 F720
G1 X128.193 Y107.276 F10800
G1 Z.2 F720
G1 E.8 F2100
M204 S800
;WIDTH:0.418888
G1 F1200
G1 X128.122 Y107.316 E.00254
G1 X128.193 Y107.357 E.00254
G1 X128.216 Y107.316 E.00147
M204 S1000
;WIPE_START
G1 F8640
G1 X128.193 Y107.357 E-.01085
G1 X128.122 Y107.316 E-.0188
G1 X128.193 Y107.276 E-.0188
;WIPE_END
G1 E-.75156 F2100
G1 Z.6 F720
G1 X130.381 Y106.556 F10800
G1 Z.2 F720
G1 E.8 F2100
M204 S800
;TYPE:External perimeter
;WIDTH:0.389818
G1 F1200
G1 X130.278 Y106.66 E.00423
M204 S1000
;WIPE_START
G1 F8640
G1 X130.381 Y106.556 E-.03383
;WIPE_END
G1 E-.76617 F2100
G1 Z.6 F720
G1 X130.298 Y105.548 F10800
G1 Z.2 F720
G1 E.8 F2100
M204 S800
;TYPE:Perimeter
;WIDTH:0.386612
G1 F1200
G1 X130.697 Y104.943 E.02071
;WIDTH:0.385289
G1 X130.781 Y104.567 E.01097
G1 X131.036 Y104.991 E.01408
G1 X130.906 Y105.254 E.00835
;WIDTH:0.386612
G1 X130.59 Y105.714 E.01595
G1 X130.472 Y105.617 E.00437
G1 X130.353 Y105.57 E.00365
M204 S1000
;WIPE_START
G1 F8640
G1 X130.697 Y104.943 E-.16503
G1 X130.781 Y104.567 E-.08895
G1 X131.036 Y104.991 E-.11423
G1 X130.906 Y105.254 E-.0677
G1 X130.59 Y105.714 E-.12883
G1 X130.472 Y105.617 E-.03528
G1 X130.353 Y105.57 E-.02947
;WIPE_END
G1 E-.17051 F2100
G1 Z.6 F720
G1 X117.388 Y102.447 F10800
G1 Z.2 F720
G1 E.8 F2100
M204 S800
;WIDTH:0.64216
G1 F1200
G1 X117.468 Y102.419 E.00421
;WIDTH:0.596084
G1 X117.547 Y102.391 E.00388
;WIDTH:0.550008
G1 X117.627 Y102.363 E.00356
;WIDTH:0.503932
G1 X117.707 Y102.335 E.00324
;WIDTH:0.457855
G1 X117.994 Y102.293 E.01001
;WIDTH:0.409326
G1 X118.281 Y102.251 E.00884
;WIDTH:0.360797
G1 X118.885 Y102.207 E.01602
;WIDTH:0.387982
G1 X119.394 Y102.197 E.01461
;WIDTH:0.429792
G1 X119.596 Y102.205 E.00649
;WIDTH:0.471602
G1 X119.798 Y102.214 E.0072
;WIDTH:0.513411
G1 X120 Y102.222 E.0079
