; generated by PrusaSlicer 2.5.0+linux-x64-GTK2 on 2022-12-03 at 03:59:08 UTC

; 

; external perimeters extrusion width = 0.60mm
; perimeters extrusion width = 0.50mm
; infill extrusion width = 0.50mm
; solid infill extrusion width = 0.50mm
; top infill extrusion width = 0.45mm
; first layer extrusion width = 0.42mm

M73 P0 R8
M73 Q0 S8
M201 X1000 Y1000 Z200 E5000 ; sets maximum accelerations, mm/sec^2
M203 X200 Y200 Z12 E120 ; sets maximum feedrates, mm / sec
M204 P1250 R1250 T1250 ; sets acceleration (P, T) and retract acceleration (R), mm/sec^2
M205 X8.00 Y8.00 Z0.40 E4.50 ; sets the jerk limits, mm/sec
M205 S0 T0 ; sets the minimum extruding and travel feed rate, mm/sec
M107
;TYPE:Custom
M862.3 P "MK3S" ; printer model check
M862.1 P0.4 ; nozzle diameter check
M115 U3.11.0 ; tell printer latest fw version
G90 ; use absolute coordinates
M83 ; extruder relative mode
M104 S215 ; set extruder temp
M140 S60 ; set bed temp
M190 S60 ; wait for bed temp
M109 S215 ; wait for extruder temp
G28 W ; home all without mesh bed level
G80 ; mesh bed leveling

G1 Z0.2 F720
G1 Y-3 F1000 ; go outside print area
G92 E0
G1 X60 E9 F1000 ; intro line
G1 X100 E12.5 F1000 ; intro line

G92 E0
M221 S95

; Don't change E values below. Excessive value can damage the printer.

M907 E538 ; set extruder motor current
G21 ; set units to millimeters
G90 ; use absolute coordinates
M83 ; use relative distances for extrusion
M900 K0.05 ; Filament gcode LA 1.5
M900 K30 ; Filament gcode LA 1.0
M107
;LAYER_CHANGE
;Z:0.2
;HEIGHT:0.2
;BEFORE_LAYER_CHANGE
G92 E0.0
;0.2


G1 E-.8 F2100
M73 P1 R8
M73 Q1 S8
G1 Z.4 F720
;AFTER_LAYER_CHANGE
;0.2
G1 X104.528 Y93.7 F10800
G1 Z.2 F720
G1 E.8 F2100
M204 S800
;TYPE:Skirt/Brim
;WIDTH:0.42
G1 F1200
G1 X106.591 Y91.689 E.09034
G1 X109.49 Y89.402 E.11579
G1 X111.331 Y88.192 E.06906
G1 X112.68 Y87.412 E.04886
G1 X114.62 Y86.445 E.06797
G1 X115.967 Y85.885 E.04574
G1 X117.39 Y85.396 E.04718
G1 X118.806 Y85.036 E.04581
G1 X120.194 Y84.83 E.04399
G1 X121.399 Y84.787 E.0378
G1 X122.446 Y84.866 E.03293
G1 X123.332 Y85.03 E.02825
G1 X124.422 Y85.385 E.03594
G1 X125.221 Y85.777 E.0279
G1 X143.95 Y96.207 E.67216
G1 X145.343 Y97.27 E.05492
G1 X146.053 Y98.008 E.03214
G1 X146.666 Y98.794 E.03125
G1 X148.979 Y102.095 E.12636
G1 X149.999 Y103.891 E.06476
G1 X150.362 Y104.797 E.03061
G1 X150.596 Y105.693 E.02903
G1 X150.714 Y106.666 E.03073
G1 X150.702 Y107.536 E.02727
G1 X150.517 Y108.676 E.03623
G1 X150.176 Y109.799 E.03681
G1 X148.959 Y112.833 E.10248
M73 Q2 S8
G1 X148.177 Y114.498 E.05767
G1 X147.5 Y115.659 E.04216
G1 X146.835 Y116.584 E.03572
M73 P2 R8
G1 X146.065 Y117.428 E.0358
G1 X145.235 Y118.117 E.03384
G1 X144.379 Y118.639 E.03142
G1 X143.439 Y119.03 E.03191
G1 X125.265 Y124.625 E.59623
G1 X123.698 Y125.02 E.05067
G1 X122.04 Y125.203 E.0523
G1 X120.281 Y125.162 E.05515
G1 X113.542 Y124.32 E.21296
G1 X111.428 Y123.968 E.06718
G1 X109.487 Y123.465 E.06288
G1 X107.517 Y122.648 E.06687
G1 X106.112 Y121.75 E.05228
G1 X104.85 Y120.619 E.05315
G1 X103.747 Y119.272 E.05457
G1 X102.512 Y117.173 E.07637
G1 X101.501 Y114.731 E.08288
G1 X100.093 Y110.135 E.15071
G1 X99.447 Y107.094 E.09746
G1 X99.277 Y105.022 E.06517
G1 X99.399 Y103.001 E.06351
G1 X99.852 Y101.017 E.06379
G1 X100.621 Y99.128 E.06396
G1 X101.347 Y97.82 E.04691
G1 X102.257 Y96.463 E.05123
G1 X104.489 Y93.746 E.11024
M204 S1000
; printing object out.stl id:0 copy 0
;WIPE_START
G1 F8640
G1 X106.591 Y91.689 E-.67908
G1 X106.866 Y91.472 E-.08092
;WIPE_END
G1 E-.04 F2100
G1 Z.6 F720
G1 X130.55 Y113.514 F10800
G1 Z.2 F720
G1 E.8 F2100
M204 S800
;TYPE:Perimeter
;WIDTH:0.419999
G1 F1200
G1 X130.273 Y114.633 E.03615
G1 X129.993 Y115.538 E.02972
G1 X129.621 Y116.499 E.03231
G1 X129.25 Y117.281 E.02712
G1 X128.925 Y117.86 E.02083
G1 X128.412 Y118.615 E.02862
G1 X128.092 Y119.018 E.01615
G1 X127.448 Y119.704 E.02949
G1 X127.063 Y120.052 E.01627
G1 X126.667 Y120.369 E.0159
G1 X126.247 Y120.666 E.01613
G1 X125.802 Y120.94 E.01639
G1 X125.333 Y121.19 E.01668
G1 X124.838 Y121.413 E.01702
M73 Q3 S8
G1 X124.317 Y121.606 E.01742
G1 X123.77 Y121.768 E.01789
G1 X123.196 Y121.896 E.01844
G1 X122.594 Y121.987 E.01909
G1 X121.964 Y122.04 E.01983
G1 X121.304 Y122.05 E.02068
G1 X120.618 Y122.016 E.02155
G1 X114.474 Y121.253 E.19412
G1 X113.473 Y121.114 E.0317
M73 P3 R8
G1 X112.535 Y120.959 E.0298
G1 X111.655 Y120.78 E.02815
G1 X110.827 Y120.566 E.02682
G1 X110.044 Y120.311 E.02582
G1 X109.308 Y120.006 E.02499
G1 X108.633 Y119.643 E.02401
G1 X107.689 Y118.956 E.03661
G1 X106.835 Y118.095 E.03805
G1 X106.05 Y117.027 E.04156
G1 X105.568 Y116.201 E.02997
G1 X105.112 Y115.266 E.03262
G1 X104.682 Y114.22 E.03547
G1 X104.48 Y113.663 E.01858
G1 X104.094 Y112.483 E.03891
G1 X103.28 Y109.796 E.08802
G1 X102.911 Y108.366 E.04633
G1 X102.642 Y107.041 E.04239
G1 X102.482 Y105.796 E.03934
G1 X102.442 Y105.009 E.02471
G1 X102.456 Y104.237 E.02422
G1 X102.527 Y103.479 E.02387
G1 X102.661 Y102.74 E.02354
G1 X102.856 Y102.012 E.02364
G1 X103.117 Y101.288 E.02414
G1 X103.441 Y100.564 E.02487
G1 X104.06 Y99.449 E.03998
G1 X104.833 Y98.301 E.0434
G1 X105.765 Y97.101 E.04764
G1 X106.873 Y95.824 E.05299
G1 X107.73 Y94.947 E.03846
G1 X108.671 Y94.074 E.04025
G1 X109.162 Y93.649 E.02036
G1 X110.203 Y92.807 E.04197
G1 X111.293 Y92.002 E.0425
G1 X112.427 Y91.239 E.04286
G1 X112.999 Y90.881 E.02114
G1 X114.172 Y90.203 E.04251
G1 X115.358 Y89.592 E.04182
G1 X115.942 Y89.32 E.02022
G1 X117.479 Y88.708 E.05185
G1 X118.309 Y88.425 E.0275
G1 X118.87 Y88.268 E.01827
G1 X119.434 Y88.138 E.01813
G1 X119.988 Y88.041 E.01763
G1 X120.531 Y87.977 E.01716
G1 X121.063 Y87.95 E.0167
G1 X121.585 Y87.963 E.01637
G1 X122.438 Y88.077 E.02699
G1 X123.2 Y88.306 E.02493
G1 X123.671 Y88.537 E.01646
G1 X124.11 Y88.831 E.01657
G1 X124.605 Y89.286 E.02106
G1 X125.071 Y89.841 E.02272
G1 X125.386 Y90.383 E.01968
G1 X125.641 Y90.926 E.01879
G1 X125.866 Y91.7 E.02529
G1 X126.029 Y92.662 E.0306
G1 X126.115 Y93.538 E.02759
G1 X126.126 Y94.721 E.0371
G1 X126.073 Y95.399 E.02132
G1 X125.929 Y96.298 E.02856
G1 X125.746 Y97.031 E.02368
G1 X125.356 Y98.172 E.0378
G1 X125.341 Y98.485 E.00985
G1 X125.419 Y98.666 E.00616
G1 X125.627 Y98.855 E.00881
G1 X126.44 Y99.105 E.02668
G1 X127.126 Y99.262 E.02205
G1 X127.852 Y99.402 E.0232
G1 X128.523 Y99.502 E.02126
G1 X129.455 Y99.572 E.02929
G1 X130.802 Y99.545 E.04224
G1 X131.693 Y99.456 E.0281
G1 X132.992 Y99.25 E.04121
G1 X133.841 Y99.079 E.02717
G1 X136.764 Y98.433 E.09386
G1 X137.778 Y98.249 E.03232
G1 X138.372 Y98.172 E.01878
G1 X138.965 Y98.127 E.01864
G1 X139.831 Y98.152 E.02716
G1 X140.579 Y98.237 E.02359
G1 X141.086 Y98.359 E.01637
G1 X141.955 Y98.711 E.02938
G1 X142.49 Y99.03 E.01953
G1 X143 Y99.42 E.02013
G1 X143.395 Y99.798 E.01714
G1 X143.775 Y100.216 E.01772
G1 X144.09 Y100.632 E.01637
G1 X146.007 Y103.345 E.10415
G1 X146.603 Y104.254 E.03407
G1 X146.95 Y104.861 E.02192
G1 X147.222 Y105.435 E.01992
G1 X147.418 Y105.993 E.01856
G1 X147.529 Y106.557 E.01803
G1 X147.555 Y107.119 E.01762
G1 X147.476 Y107.769 E.02055
G1 X147.231 Y108.634 E.02818
G1 X146.154 Y111.34 E.09131
G1 X145.611 Y112.56 E.04187
M73 Q4 S8
G1 X145.11 Y113.505 E.03356
G1 X144.611 Y114.279 E.02887
G1 X144.13 Y114.88 E.02413
G1 X143.582 Y115.398 E.02363
G1 X142.988 Y115.788 E.02229
G1 X142.566 Y115.981 E.01454
M73 P4 R8
G1 X142.053 Y116.116 E.01665
G1 X141.454 Y116.179 E.01889
G1 X140.793 Y116.124 E.02079
G1 X140.303 Y116.018 E.01571
G1 X136.405 Y114.759 E.12844
G1 X131.25 Y113.156 E.16928
G1 X131.153 Y113.135 E.00308
G1 X130.786 Y113.214 E.0118
G1 X130.57 Y113.457 E.01019
M204 S1000
G1 X130.898 Y113.652 F10800
M204 S800
;TYPE:External perimeter
G1 F1200
G1 X130.637 Y114.733 E.03487
G1 X130.35 Y115.662 E.0305
G1 X129.968 Y116.648 E.03315
G1 X129.585 Y117.454 E.02796
G1 X129.246 Y118.059 E.02174
G1 X128.724 Y118.827 E.02912
G1 X128.392 Y119.248 E.01679
G1 X128.056 Y119.626 E.01586
G1 X127.695 Y119.991 E.01611
G1 X127.307 Y120.34 E.01635
G1 X126.894 Y120.671 E.0166
G1 X126.455 Y120.981 E.01686
G1 X125.99 Y121.268 E.01713
G1 X125.499 Y121.529 E.01745
G1 X124.981 Y121.762 E.0178
G1 X124.436 Y121.964 E.01822
G1 X123.865 Y122.133 E.01869
G1 X123.265 Y122.267 E.01925
G1 X122.638 Y122.362 E.01989
G1 X121.982 Y122.416 E.02063
G1 X121.298 Y122.427 E.02146
G1 X120.585 Y122.392 E.02237
G1 X114.425 Y121.626 E.19464
G1 X113.416 Y121.487 E.03193
G1 X112.467 Y121.33 E.03017
G1 X111.571 Y121.147 E.02867
G1 X110.722 Y120.928 E.02749
G1 X109.913 Y120.665 E.02665
G1 X109.146 Y120.347 E.02605
G1 X108.432 Y119.963 E.02541
G1 X107.443 Y119.243 E.03836
G1 X106.548 Y118.34 E.03987
G1 X105.734 Y117.234 E.04306
G1 X105.236 Y116.379 E.03104
G1 X104.768 Y115.421 E.03344
G1 X104.33 Y114.356 E.0361
G1 X104.123 Y113.786 E.01902
G1 X103.734 Y112.597 E.03923
G1 X102.917 Y109.898 E.0884
G1 X102.543 Y108.45 E.04689
G1 X102.269 Y107.102 E.04313
G1 X102.107 Y105.83 E.04022
G1 X102.065 Y105.016 E.02557
G1 X102.079 Y104.216 E.02508
G1 X102.153 Y103.428 E.02482
G1 X102.292 Y102.658 E.02454
G1 X102.496 Y101.899 E.02462
G1 X102.767 Y101.147 E.02507
G1 X103.104 Y100.395 E.02583
G1 X103.738 Y99.252 E.04099
G1 X104.528 Y98.08 E.04431
G1 X105.474 Y96.862 E.04836
G1 X106.595 Y95.569 E.05366
G1 X107.466 Y94.677 E.0391
G1 X108.419 Y93.793 E.04075
G1 X108.92 Y93.36 E.02076
G1 X109.972 Y92.509 E.04242
G1 X111.076 Y91.694 E.04302
G1 X112.222 Y90.923 E.04332
G1 X112.804 Y90.558 E.02154
G1 X113.991 Y89.872 E.043
G1 X115.192 Y89.254 E.04234
G1 X115.791 Y88.975 E.0207
G1 X117.357 Y88.352 E.05285
G1 X118.207 Y88.062 E.02817
G1 X118.785 Y87.901 E.01881
G1 X119.367 Y87.767 E.01874
G1 X119.943 Y87.666 E.01832
G1 X120.511 Y87.601 E.01792
G1 X121.125 Y87.574 E.01929
G1 X121.629 Y87.589 E.0158
G1 X122.44 Y87.69 E.02563
G1 X122.955 Y87.818 E.01664
G1 X123.445 Y88.002 E.01642
G1 X123.912 Y88.244 E.01649
G1 X124.353 Y88.542 E.01667
G1 X124.885 Y89.034 E.02274
G1 X125.384 Y89.631 E.02438
G1 X125.726 Y90.219 E.02133
G1 X126 Y90.81 E.02042
G1 X126.236 Y91.626 E.02663
G1 X126.403 Y92.612 E.03138
G1 X126.491 Y93.518 E.02852
G1 X126.498 Y94.206 E.02157
G1 X126.477 Y95.073 E.0272
G1 X126.383 Y95.851 E.02459
G1 X126.248 Y96.579 E.0232
G1 X126.006 Y97.436 E.02791
G1 X125.703 Y98.338 E.02986
G1 X125.754 Y98.484 E.00485
M73 Q5 S8
G1 X126.032 Y98.594 E.00937
G1 X126.53 Y98.738 E.01625
G1 X127.197 Y98.892 E.02146
G1 X127.909 Y99.029 E.02272
G1 X128.552 Y99.126 E.0204
G1 X129.448 Y99.195 E.02816
G1 X130.765 Y99.17 E.0413
G1 X131.634 Y99.084 E.02741
M73 P5 R8
G1 X132.916 Y98.881 E.04069
G1 X133.763 Y98.711 E.02707
G1 X136.697 Y98.062 E.09421
G1 X137.729 Y97.875 E.0329
G1 X138.343 Y97.796 E.01941
G1 X138.961 Y97.75 E.01943
G1 X139.868 Y97.777 E.02845
G1 X140.664 Y97.869 E.02512
G1 X141.214 Y98.004 E.01776
G1 X142.133 Y98.378 E.0311
G1 X142.702 Y98.718 E.02078
G1 X143.245 Y99.133 E.02146
G1 X143.726 Y99.593 E.02087
G1 X144.085 Y99.998 E.01694
G1 X144.395 Y100.41 E.01618
G1 X146.319 Y103.133 E.10454
G1 X146.924 Y104.057 E.03464
G1 X147.284 Y104.686 E.02273
G1 X147.571 Y105.291 E.02099
G1 X147.783 Y105.894 E.02003
G1 X147.905 Y106.512 E.01976
G1 X147.933 Y107.133 E.01948
G1 X147.847 Y107.844 E.02245
G1 X147.589 Y108.755 E.02971
G1 X146.501 Y111.486 E.09216
G1 X145.95 Y112.725 E.04251
G1 X145.436 Y113.696 E.03447
G1 X144.948 Y114.453 E.02821
G1 X144.606 Y114.889 E.01738
G1 X144.121 Y115.408 E.02228
G1 X143.736 Y115.749 E.01612
G1 X143.044 Y116.185 E.02563
G1 X142.579 Y116.372 E.01571
G1 X141.959 Y116.517 E.01997
G1 X141.45 Y116.557 E.01601
G1 X140.75 Y116.499 E.02204
G1 X140.202 Y116.382 E.01757
G1 X136.29 Y115.118 E.12889
G1 X131.138 Y113.516 E.16918
G1 X130.983 Y113.536 E.00489
G1 X130.934 Y113.603 E.00263
M204 S1000
G1 X130.498 Y113.657 F10800
;WIPE_START
G1 F8640
G1 X130.637 Y114.733 E-.26965
G1 X130.35 Y115.662 E-.22463
G1 X129.968 Y116.648 E-.24416
G1 X129.928 Y116.733 E-.02155
;WIPE_END
G1 E-.04 F2100
G1 Z.6 F720
G1 X129.385 Y111.076 F10800
G1 Z.2 F720
G1 E.8 F2100
M204 S800
;TYPE:Perimeter
G1 F1200
G1 X129.299 Y112.254 E.03702
G1 X129.181 Y113.02 E.02431
G1 X129.013 Y113.809 E.02528
G1 X128.758 Y114.728 E.02992
G1 X128.527 Y115.397 E.02219
G1 X128.303 Y115.943 E.01851
G1 X127.973 Y116.634 E.02399
G1 X127.442 Y117.558 E.03342
G1 X127.124 Y118.019 E.01755
G1 X126.757 Y118.479 E.01844
G1 X126.332 Y118.929 E.01941
G1 X125.862 Y119.339 E.01955
G1 X125.337 Y119.707 E.02011
G1 X124.753 Y120.025 E.02084
G1 X124.11 Y120.284 E.02176
G1 X123.428 Y120.472 E.02218
G1 X122.64 Y120.6 E.02502
G1 X121.892 Y120.642 E.02348
G1 X121.338 Y120.634 E.01737
G1 X120.751 Y120.595 E.01845
G1 X120.263 Y120.545 E.0154
G1 X118.089 Y120.245 E.06881
G1 X114.667 Y119.806 E.10815
G1 X112.815 Y119.528 E.05874
G1 X111.99 Y119.369 E.02635
G1 X111.239 Y119.189 E.02421
G1 X110.552 Y118.976 E.02255
G1 X109.926 Y118.725 E.02114
G1 X109.35 Y118.434 E.02023
G1 X108.806 Y118.085 E.02026
G1 X108.063 Y117.436 E.03094
G1 X107.383 Y116.589 E.03406
G1 X106.962 Y115.898 E.02537
G1 X106.573 Y115.118 E.02732
G1 X106.199 Y114.225 E.03036
G1 X105.645 Y112.65 E.05235
G1 X104.953 Y110.417 E.07331
G1 X104.547 Y108.97 E.04711
G1 X104.321 Y108.033 E.03021
G1 X104.07 Y106.791 E.03974
G1 X103.917 Y105.713 E.03414
G1 X103.873 Y105.009 E.02211
G1 X103.878 Y104.337 E.02109
G1 X103.952 Y103.657 E.02144
G1 X104.053 Y103.05 E.01931
G1 X104.214 Y102.437 E.01987
G1 X104.431 Y101.819 E.02052
G1 X104.706 Y101.21 E.02096
M73 Q6 S8
G1 X105.073 Y100.503 E.02496
G1 X105.729 Y99.484 E.038
G1 X106.548 Y98.397 E.04267
G1 X107.542 Y97.212 E.0485
G1 X108.297 Y96.401 E.03474
M73 P6 R8
G1 X109.15 Y95.58 E.03711
G1 X109.611 Y95.167 E.01942
G1 X110.571 Y94.364 E.03922
G1 X111.093 Y93.963 E.02065
G1 X111.592 Y93.579 E.01975
G1 X112.657 Y92.827 E.04086
G1 X113.206 Y92.464 E.02063
G1 X114.304 Y91.788 E.04045
G1 X115.416 Y91.17 E.03987
G1 X116.522 Y90.627 E.03866
G1 X117.078 Y90.383 E.01903
G1 X117.636 Y90.165 E.01879
G1 X118.719 Y89.806 E.03577
G1 X120.362 Y89.451 E.05269
G1 X121.038 Y89.393 E.02129
G1 X121.996 Y89.443 E.03007
G1 X122.657 Y89.6 E.02131
G1 X123.186 Y89.829 E.01808
G1 X123.61 Y90.145 E.01656
G1 X123.94 Y90.544 E.01623
G1 X124.13 Y90.896 E.01256
G1 X124.406 Y91.718 E.02719
G1 X124.56 Y92.468 E.02401
G1 X124.688 Y93.363 E.02833
G1 X124.743 Y94.161 E.02508
G1 X124.738 Y94.688 E.01654
G1 X124.7 Y95.248 E.0176
G1 X124.576 Y96.031 E.02487
G1 X124.408 Y96.641 E.01984
G1 X124.039 Y97.71 E.03545
G1 X123.825 Y98.465 E.02461
G1 X123.806 Y98.989 E.01642
G1 X123.972 Y99.411 E.01422
G1 X124.192 Y99.702 E.01144
G1 X124.537 Y99.987 E.01404
G1 X124.992 Y100.228 E.01614
G1 X125.498 Y100.401 E.01675
G1 X126.112 Y100.547 E.01981
G1 X126.868 Y100.685 E.02407
G1 X128.328 Y100.915 E.04636
G1 X128.846 Y100.968 E.01632
G1 X129.356 Y101 E.01601
G1 X130.372 Y101.006 E.03188
G1 X131.353 Y100.946 E.03081
G1 X132.783 Y100.758 E.04522
G1 X134.142 Y100.494 E.04341
G1 X136.646 Y99.915 E.08058
G1 X137.771 Y99.697 E.03592
G1 X138.514 Y99.607 E.02347
G1 X139.496 Y99.557 E.03085
G1 X140.291 Y99.632 E.02501
G1 X141.123 Y99.873 E.02716
G1 X141.74 Y100.217 E.02216
G1 X142.415 Y100.811 E.02821
G1 X142.785 Y101.26 E.01823
G1 X144.809 Y104.167 E.11108
G1 X145.363 Y105.012 E.03169
G1 X145.673 Y105.529 E.01889
G1 X146.077 Y106.469 E.0321
G1 X146.137 Y106.929 E.01453
G1 X146.086 Y107.438 E.01603
G1 X145.845 Y108.269 E.02714
G1 X145.015 Y110.329 E.06962
G1 X144.518 Y111.493 E.03969
G1 X144.099 Y112.369 E.03045
G1 X143.652 Y113.155 E.02834
G1 X143.286 Y113.67 E.01981
G1 X142.857 Y114.136 E.01987
G1 X142.418 Y114.475 E.01738
G1 X141.914 Y114.708 E.01741
G1 X141.375 Y114.778 E.01703
G1 X140.862 Y114.696 E.01631
G1 X135.531 Y112.985 E.17553
G1 X129.442 Y111.094 E.19991
M204 S1000
G1 X129.044 Y110.576 F10800
M204 S800
;TYPE:External perimeter
G1 F1200
G1 X128.923 Y112.226 E.0519
G1 X128.808 Y112.962 E.02334
G1 X128.644 Y113.73 E.02462
G1 X128.394 Y114.627 E.0292
G1 X128.171 Y115.274 E.02147
G1 X127.954 Y115.799 E.01782
G1 X127.635 Y116.467 E.02318
G1 X127.376 Y116.929 E.01661
G1 X126.948 Y117.61 E.02524
G1 X126.463 Y118.243 E.02499
G1 X126.059 Y118.669 E.01841
G1 X125.616 Y119.054 E.01841
G1 X125.122 Y119.397 E.01886
G1 X124.575 Y119.693 E.01951
G1 X123.971 Y119.934 E.02039
G1 X123.33 Y120.107 E.02083
